X: 4099
T: The AMERICAN
R: Reel.
%R: reel
B: James Kerr "Merry Melodies" v.4 p.13 #99
Z: 2016 John Chambers <jc:trillian.mit.edu>
M: C|
L: 1/8
K: G
(uGE) |\
DGBG AGge | dBAc BGEG |\
DGBG AGge | dBAB G2 :|\
(ge) |\
(3(def) (gf) geeg | dBcB (AG) (3(ABc) |
dfgf gedg | bgag (ab)g2 |\
gabg egdg | BdcA BGAG |\
EGDG BGAG | dBAB G2 |]

%%sep 1 1 500
%%sep 1 1 500

